X:12
T:The Harp and Shamrock
C:Pat Crowley
R:hornpipe
D:At it Again, John Carty
Z:Paul Stewart Cranford (P.S.C.), <http://www.cranfordpub.com>
Q:300
L:1/8
M:C
K:G
gf|edBe dBGB|AE ~E2 G3 A|B2 eB e2 ge|dB ~B2 (3(ABc) BA|
GEED E2 DE|GABG ABdg|eage dBGB|(3ABA G2 G2:|
|:Bd|e3 f efgf|edde d2 BA|GABG Bdeg|dB ~B2 (3(ABc) BA|
GE ~E2 E2 DE|GABG ABdg|eage dBGB|(3ABA G2 G2:|
